X:195
T:Staines Morris
L:1/8
M:4/4
N:Trad English
Z:Andy Hornby
%%TUNEURL: http://www.leeds.ac.uk/music/Info/RRTuneBk/gettune/00000daa.html
%%ID:00000daa
K:G
E2e2^c2^d2|e2dc B3c|de dc B2AG|FE FG E4:|
|GA Bc B2AG|FE F2E3F|GA Bc B2AG|FE F2E3|]
|:F|G2GG D2D2|EF GA B3c|de dc B2AG|FE F2E4:|
